build/system/UploadOutline.svg

<svg xmlns="http://www.w3.org/2000/svg" fill="none" viewBox="0 0 24 24" focusable="false"><path d="M0 0H24V24H0z"/><path fill="#74767B" fill-rule="evenodd" d="M6.42846 10.0903C6.28846 9.96032 6.21846 9.79032 6.21846 9.61032C6.21846 9.45032 6.26846 9.30032 6.38846 9.17032L11.4806 4.2325C11.7606 3.9225 12.2406 3.9225 12.5206 4.2325L17.2584 9.25033C17.4984 9.52033 17.4784 9.93033 17.2184 10.1703C16.9484 10.4103 16.5384 10.4003 16.2984 10.1303L12.6506 6.28728L12.6506 16.2125C12.6506 16.5715 12.3596 16.8625 12.0006 16.8625C11.6416 16.8625 11.3506 16.5715 11.3506 16.2125L11.3506 6.22395L7.34846 10.0503C7.10846 10.3103 6.69846 10.3303 6.42846 10.0903ZM4.3501 19.5C4.3501 19.141 4.64111 18.85 5.0001 18.85L19.0001 18.85C19.3591 18.85 19.6501 19.141 19.6501 19.5C19.6501 19.859 19.3591 20.15 19.0001 20.15L5.0001 20.15C4.64111 20.15 4.3501 19.859 4.3501 19.5Z"/></svg>

<svg xmlns="http://www.w3.org/2000/svg" fill="none" viewBox="0 0 24 24" focusable="false"><path fill="#74767B" fill-rule="evenodd" d="M6.42 10.09a.65.65 0 0 1-.21-.48c0-.16.05-.31.17-.44l5.1-4.94c.28-.31.76-.31 1.04 0l4.73 5.02c.24.27.22.68-.04.92a.65.65 0 0 1-.92-.04l-3.64-3.85v9.93c0 .36-.3.65-.65.65-.36 0-.65-.29-.65-.65V6.22l-4.01 3.83c-.24.26-.65.28-.92.04M4.35 19.5c0-.36.29-.65.65-.65h14c.35 0 .64.29.64.65 0 .35-.29.65-.64.65H5c-.36 0-.65-.3-.65-.65"/></svg>
